X:1
T: Miss Blair's Fancy
C:
R:Jig
Q:180
K:G
M:6/8
L:1/16
B2|d2B2G2 G2B2G2|A2F2D2 D2F2D2|E2F2G2 A2B2c2|B2A2G2 F2E2D2|d2B2G2 G2B2G2|A2F2D2 DEF2D2|E2F2G2 A2F2D2|G6G4B2|
d2B2G2 G2B2G2|A2F2D2 D2F2D2|E2F2G2 A2B2c2|B2A2G2 F2E2D2|d2B2G2 G2B2G2|A2F2D2 DEF2D2|E2F2G2 A2F2D2|G6G4B2|
d4d2 d2B2d2|g2f2g2 d2B2G2|c2e2c2 B2d2B2|A2B2G2 A2F2D2|d2B2d2 d2B2d2|g2f2g2 d2B2G2|E2F2G2 A2F2D2|G6G4B2|
d4d2 d2B2d2|g2f2g2 d2B2G2|c2e2c2 B2d2B2|A2B2G2 A2F2D2|d2B2d2 d2e2f2|g2b2a2 g2d2B2|E2F2G2 A2F2D2|G6G4||
